X:1
T:Leslie
M:6/8
L:1/8
Q:80
C:
S:Jig
K:HP
[| {ag}a3ga{g}a | \
fa{g}aea{g}a | \
da{g}aca{g}a |
Ba{g}aAa{g}a | \
{g}a3fa{g}a | \
ea{g}ada{g}a |
{cd}cB{G}B{g}B{d}ce | \
{gfg}f3{g}efg{ag}a3ga{g}a | \
fa{g}aea{g}a |
da{g}aca{g}a | \
Ba{g}aAa{g}a | \
{g}af{e}f{g}fga |
ec{G}c{g}ce{A}e | \
f{g}B{G}B{g}B{d}ce | \
{gfg}f3a2|]
